svg/set/MED/C.svg

<?xml version="1.0" encoding="UTF-8"?>
<svg id="Layer_2" data-name="Layer 2" xmlns="http://www.w3.org/2000/svg" viewBox="0 0 1061.16 600.23">
  <defs>
    <style>
      .cls-1, .cls-2 {
        stroke-width: 0px;
      }

      .cls-2 {
        fill: #fff;
      }
    </style>
  </defs>
  <g id="Layer_1-2" data-name="Layer 1">
    <g>
      <path id="p1" class="cls-2" d="M390.09,0l-17.86,33.48H20.48s-3.84,11.65,18.91,32.13l107.09,96.4L0,394.57h113.29l319.77,163.73,39.53,41.92h115.98l39.53-41.92,319.77-163.73h113.29l-146.47-232.56,107.09-96.4c22.74-20.48,18.91-32.13,18.91-32.13h-351.75L671.07,0h-280.98Z"/>
      <path id="p2" class="cls-1" d="M406.53,23.91l-156.93,289.2c-3.52,6.49-2.97,11.66.9,15.77l233.16,247.43h93.86l233.16-247.43c3.87-4.1,4.42-9.28.9-15.77L654.63,23.91h-248.1ZM530.58,47.08c6.99,0,2.15,116.28,30.04,234.73,6.98.48,13.92,1.06,20.77,1.87,19.48-65.79,19.15-178.3,25.71-178.3s2.69,121.63,34.6,190.04c4.17,1.14,8.31,2.33,12.41,3.59,24.69-42.35,23.82-132.2,29.52-132.2,6.05,0,10.48,113.26,21.52,174.19-77.26,21.59-151.46,96.57-174.57,206.33-23.11-109.76-97.31-184.73-174.57-206.33,11.04-60.93,15.47-174.19,21.52-174.19,5.7,0,4.83,89.84,29.52,132.2,4.09-1.26,8.24-2.45,12.41-3.59,31.91-68.4,27.99-190.04,34.6-190.04s6.22,112.51,25.71,178.3c6.85-.81,13.8-1.39,20.77-1.87,27.89-118.45,23.05-234.73,30.04-234.73Z"/>
      <path id="p3" class="cls-1" d="M76.3,57.39c-5.6,0-2.36,5.69-1.79,6.2l104.7,93.64L50.59,362.44c-3.62,5.77-2.7,8.22,3.89,8.22h66.88l245.11,125.62c4.5,2.31,9.65,1.63,3.96-4.41l-154.91-164.26L359.52,57.39H76.3Z"/>
      <g id="u1">
        <path id="p3-2" data-name="p3" class="cls-1" d="M984.86,57.39c5.6,0,2.36,5.69,1.79,6.2l-104.7,93.64,128.61,205.21c3.62,5.77,2.7,8.22-3.89,8.22h-66.88l-245.11,125.62c-4.5,2.31-9.65,1.63-3.96-4.41l154.91-164.26L701.64,57.39h283.23Z"/>
      </g>
    </g>
  </g>
</svg>

<?xml version="1.0" encoding="UTF-8" standalone="no"?>
<svg
   id="Layer_2"
   data-name="Layer 2"
   viewBox="0 0 1061.16 600.21999"
   version="1.1"
   width="1061.16"
   height="600.21997"
   xmlns="http://www.w3.org/2000/svg"
   xmlns:svg="http://www.w3.org/2000/svg">
  <defs
     id="defs1">
    <style
       id="style1">
      .cls-1, .cls-2 {
        stroke-width: 0px;
      }

      .cls-2 {
        fill: #fff;
      }
    </style>
  </defs>
  <g
     id="Layer_1-2"
     data-name="Layer 1">
    <g
       id="g1">
      <path
         id="p1"
         class="cls-2"
         d="M 390.09,0 372.23,33.48 H 20.48 c 0,0 -3.84,11.65 18.91,32.13 L 146.48,162.01 0,394.57 h 113.29 l 319.77,163.73 39.53,41.92 H 588.57 L 628.1,558.3 947.87,394.57 h 113.29 L 914.69,162.01 1021.78,65.61 c 22.74,-20.48 18.91,-32.13 18.91,-32.13 H 688.94 L 671.07,0 Z" />
      <path
         id="p2"
         class="cls-1"
         d="M 406.53,23.91 249.6,313.11 c -3.52,6.49 -2.97,11.66 0.9,15.77 l 233.16,247.43 h 93.86 L 810.68,328.88 c 3.87,-4.1 4.42,-9.28 0.9,-15.77 L 654.63,23.91 Z m 124.05,23.17 c 6.99,0 2.15,116.28 30.04,234.73 6.98,0.48 13.92,1.06 20.77,1.87 19.48,-65.79 19.15,-178.3 25.71,-178.3 6.56,0 2.69,121.63 34.6,190.04 4.17,1.14 8.31,2.33 12.41,3.59 24.69,-42.35 23.82,-132.2 29.52,-132.2 6.05,0 10.48,113.26 21.52,174.19 C 627.89,362.59 553.69,437.57 530.58,547.33 507.47,437.57 433.27,362.6 356.01,341 c 11.04,-60.93 15.47,-174.19 21.52,-174.19 5.7,0 4.83,89.84 29.52,132.2 4.09,-1.26 8.24,-2.45 12.41,-3.59 31.91,-68.4 27.99,-190.04 34.6,-190.04 6.61,0 6.22,112.51 25.71,178.3 6.85,-0.81 13.8,-1.39 20.77,-1.87 27.89,-118.45 23.05,-234.73 30.04,-234.73 z" />
      <path
         id="p3"
         class="cls-1"
         d="m 76.3,57.39 c -5.6,0 -2.36,5.69 -1.79,6.2 l 104.7,93.64 -128.62,205.21 c -3.62,5.77 -2.7,8.22 3.89,8.22 h 66.88 l 245.11,125.62 c 4.5,2.31 9.65,1.63 3.96,-4.41 L 215.52,327.61 359.52,57.39 Z" />
      <g
         id="u1">
        <path
           id="p3-2"
           data-name="p3"
           class="cls-1"
           d="m 984.86,57.39 c 5.6,0 2.36,5.69 1.79,6.2 l -104.7,93.64 128.61,205.21 c 3.62,5.77 2.7,8.22 -3.89,8.22 H 939.79 L 694.68,496.28 c -4.5,2.31 -9.65,1.63 -3.96,-4.41 L 845.63,327.61 701.64,57.39 h 283.23 z" />
      </g>
    </g>
  </g>
</svg>
